kora-light/actions/scalable/selection-move-to-layer-above.svg

<svg xmlns="http://www.w3.org/2000/svg" width="16" height="16" viewBox="0 0 16 16">
 <defs>
  <style id="current-color-scheme" type="text/css">
   .ColorScheme-Text { color:#444444; } .ColorScheme-Highlight { color:#4285f4; }
  </style>
 </defs>
 <path style="fill:currentColor" class="ColorScheme-Text" d="M 4 1 L 1 5 L 10 5 L 13 1 L 4 1 z M 12.5 5 L 12.3125 5.21875 L 10 7.71875 L 10.65625 8.40625 L 12 6.96875 L 12 11 L 4 11 L 1 15 L 10 15 L 13 11 L 13 6.96875 L 14.34375 8.40625 L 15 7.71875 L 12.6875 5.21875 L 12.5 5 z"/>
</svg>

<svg xmlns="http://www.w3.org/2000/svg" style="fill-rule:evenodd;clip-rule:evenodd;stroke-linejoin:round;stroke-miterlimit:2" width="100%" height="100%" version="1.1" viewBox="0 0 16 16" xml:space="preserve">
 <defs>
  <style id="current-color-scheme" type="text/css">
   .ColorScheme-Text { color:#444444; } .ColorScheme-Highlight { color:#4285f4; } .ColorScheme-NeutralText { color:#ff9800; } .ColorScheme-PositiveText { color:#4caf50; } .ColorScheme-NegativeText { color:#f44336; }
  </style>
 </defs>
 <path style="fill:currentColor;" class="ColorScheme-Text" d="M4,1l-3,3.029l9,-0l3,-3.029l-9,0Zm8.5,4l-0.188,0.219l-2.312,2.5l0.656,0.687l1.344,-1.437l0,4.031l-8,0l-3,3.029l9,-0l3,-3.029l0,-4.031l1.344,1.437l0.656,-0.687l-2.313,-2.5l-0.187,-0.219Z"/>
</svg>
